X:1
T:Precious Blessings
T:Precious Blessings
T:Ira David Sankey
T:Frances Jane (Fanny) Crosby, 1901
T:Public Domain, Courtesy of the Cyber Hymnal™
T:Public Domain, Courtesy of the Cyber Hymnal™
C:Ira David Sankey
Z:Public Domain,
Z:Courtesy of the Cyber Hymnal™
%%score ( 1 2 ) ( 3 4 )
L:1/8
Q:1/4=100
M:4/4
K:Ab
V:1 treble 
V:2 treble 
V:3 bass 
V:4 bass 
V:1
 [CA]>[DB] | [Ec]>[Fd] [Ec]>[DB] [Ec]2 [EA]>[_GA] | [FA]>[GB] [FA]>[=EG] [FA]2 [_EG]>[DF] | %3
w: 1.~Pre- cious|bless- ings we re- ceive, When on|Je- sus we be- lieve, And are|
w: 2.~Pre- cious|bless- ings that de- scend, When be-|fore His throne we bend, And the|
w: 3.~When the|world is o- ver- come, And its|bat- tles fought and won, When we|
 [CE]>[CE] [CE]>[CE] [CA]>[EA] [=DG]>[DA] | [EB]4 z2 [EA]>[EB] | %5
w: walk- ing in the Spir- it day by|day; When His|
w: glo- ry cloud is rest- ing o’er us|there; Ev- ery|
w: see our Lord and Sav- ior in the|sky; How our|
 [Ec]>[Fd] [Ec]>[DB] [Ec]2 [EA]>[_GA] | [FA]>[FB] [FA]>[=EG] [FA]2 [_EG]>[DF] | %7
w: Word is our de- light, And our|path is grow- ing bright, While by|
w: heart with joy is filled, Ev- ery|wave of sor- row stilled, While we|
w: hearts will o- ver- flow, While the|rap- ture we shall know, When we|
 E>E [EA]>[Ec] [DB]>[DF] [DG]>[DE] | [CA]4 z ||"^Refrain" [Ec][Ec]>[Ec] | B4- [EB][Gd] [Ad]>[Ed] | %11
w: faith we learn to trust Him and o-|bey.|O praise the|Lord, for He is good;|
w: feel the hal- lowed bliss of an- swered|prayer.|||
w: meet Him in His king- dom by and|by.|||
 c4- [Ec][Ee] [Ee]>[Fe] | =d4- [Fd][=DB] [Fd]>[Af] | e4- !fermata![Be]2 [Ee][Ed] | %14
w: * O praise the Lord,|* our God a- bove,|* For He keeps|
w: |||
w: |||
 [Ec]>[Fd] [Ec]>[DB] [Ec]2 [EA]>[_GA] | [FA]>[FB] [FA]>[=EG] [FA]2 [_EG]>[DF] | %16
w: * us ev- ery hour, And up-|holds us by His power, While we|
w: ||
w: ||
 E>E [EA]>[Ec] [DB]>[DF] [DG]>[DE] | [CA]4 |] %18
w: dwell with- in the sun- shine of His|love.|
w: ||
w: ||
V:2
 x2 | x8 | x8 | x8 | x8 | x8 | x8 | E>E x6 | x5 || x3 | E E E3/2 E/ x4 | EC E>E x4 | %12
 F F F3/2 F/ x4 | GG A>A x4 | x8 | x8 | E>E x6 | x4 |] %18
V:3
 [A,,E,]>[A,,E,] | [A,,A,]>[A,,A,] [A,,A,]>[A,,A,] [A,,A,]2 [C,A,]>[C,A,] | %2
w: ~ ~|~ ~ ~ ~ ~ ~ ~|
 [D,A,]>[D,A,] [D,A,]>[D,A,] [D,A,]2 [D,A,]>[D,A,] | %3
w: ~ ~ ~ ~ ~ ~ ~|
 [A,,A,]>[A,,A,] [A,,A,]>[A,,A,] [F,A,]>[F,A,] [B,,B,]>[B,,A,] | G,4 [C,A,]>[B,,G,] x2 | %5
w: ~ ~ ~ ~ ~ ~ ~ ~|~ ~ ~|
 [A,,A,]>[A,,A,] [A,,A,]>[A,,A,] [A,,A,]2 [C,A,]>[C,A,] | %6
w: ~ ~ ~ ~ ~ ~ ~|
 [D,A,]>[D,A,] [D,A,]>[D,A,] [D,A,]2 [D,A,]>[D,A,] | %7
w: ~ ~ ~ ~ ~ ~ ~|
 [E,G,]>[D,B,] [C,A,]>[A,,A,] [D,F,]>[D,B,] [E,B,]>[E,G,] | [A,,A,]4 z || [A,,A,][A,,A,]>[C,A,] | %10
w: ~ ~ ~ ~ ~ ~ ~ ~|~|~ ~ ~|
 [E,G,][E,G,] [E,G,]>[E,G,] [E,G,][E,B,] [F,A,]>[G,B,] | %11
w: ~ O praise the Lord, ~ ~ ~|
 A,[E,_A,] [C,A,]>[E,_A,] A,[F,=A,] [F,A,]>[A,C] | %12
w: ~ for He is good; ~ ~ ~|
 B,B, [F,B,]>[=D,B,] [B,,B,][B,,B,] [B,,B,]>[B,,B,] | B,B,C>C !fermata![E,D]2 [E,C][E,B,] | %14
w: ~ O praise the Lord, ~ ~ ~|~ our God above, * * *|
 [A,,A,]>[A,,A,] [A,,A,]>[A,,A,] [A,,A,]2 [C,A,]>[C,A,] | %15
w: |
 [D,A,]>[D,A,] [D,A,]>[D,A,] [D,A,]2 [D,A,]>[D,A,] | %16
w: |
 [E,G,]>[D,B,] [C,A,]>[A,,A,] [D,F,]>[D,B,] [E,B,]>[E,G,] | [A,,A,]4 |] %18
w: ||
V:4
 x2 | x8 | x8 | x8 | (E,2 E,2 E,>D,) x2 | x8 | x8 | x8 | x5 || x3 | x8 | =A, x2 =A, x4 | B,B, x6 | %13
 E,4- x4 | x8 | x8 | x8 | x4 |] %18

